X:20503
T:Tommy Peoples' Mazurka
R:Mazurka
C:Trad.
O:Ireland
Z:Paul Hardy's Possible Tunebook 2022 (see www.paulhardy.net). Creative Commons cc by-nc-sa licenced.
N:From playing of Tommy Peoples 1948-2018
M:3/4
L:1/8
Q:1/4=150
K:D
FG|"D" AF A2 dc|"G" BG B2 ef|"A" ge c2 Bc|"D" BA F2 FG|
"D" AF A2 dc|"G" BG B2 ef|"A" g>e cA Bc|"D" d2 d2:|
|:fg|"D" af dA cd|"G" c2 B2 ef|"A" ge cA Bc|"D" B2 F2 fg|
"D" af dA cd|"G" c2 B2 ef|"A" g>e ce fe|"D" d2 d2:|

